src/pos-icons/file-plus.svg

<svg height="24" viewBox="0 0 24 24" width="24" xmlns="http://www.w3.org/2000/svg"><path d="m13 9h5.5l-5.5-5.5zm-7-7h8l6 6v12a2 2 0 0 1 -2 2h-12c-1.11 0-2-.9-2-2v-16c0-1.11.89-2 2-2m5 13v-3h-2v3h-3v2h3v3h2v-3h3v-2z"/></svg>

<?xml version="1.0" encoding="UTF-8"?><!DOCTYPE svg PUBLIC "-//W3C//DTD SVG 1.1//EN" "http://www.w3.org/Graphics/SVG/1.1/DTD/svg11.dtd"><svg xmlns="http://www.w3.org/2000/svg" xmlns:xlink="http://www.w3.org/1999/xlink" version="1.1" id="mdi-file-plus" width="24" height="24" viewBox="0 0 24 24"><path d="M13,9H18.5L13,3.5V9M6,2H14L20,8V20A2,2 0 0,1 18,22H6C4.89,22 4,21.1 4,20V4C4,2.89 4.89,2 6,2M11,15V12H9V15H6V17H9V20H11V17H14V15H11Z" /></svg>
